X: 37099
T: Silver Walk, The
R: reel
M: 4/4
K: Gmajor
BA|:"^G" G2 EG DGEG|"^G" DEGA BGGB|"^D" A2 FA DAFA|"^D" DAFA cAFA|
"^G" G2 EG DGEG|"^G" DEGA BGGB|"^C" AGAB"^D" cBAG|1 "^D" FDEF"^G" G2 BA:|2 "^D" FDEF"^G"G2 G2||
|:"^G" DDDG EEEG|"^G" DGGA BGGB|"^C" AGAB cBcd|"^D" edef gedB|
"^G" D3 G E3 G|"^G" DGGA BGGB|"^C" AGAB cBAG|1 "^D" FDEF"^G" G2 G2:|2 "^D" FDEF"^G" G4||

